Newaita-dark/apps/64/multimedia-photo-viewer.svg

<?xml version="1.0" encoding="UTF-8"?>
<svg xmlns="http://www.w3.org/2000/svg" xmlns:xlink="http://www.w3.org/1999/xlink" width="64pt" height="64pt" viewBox="0 0 64 64" version="1.1">
<defs>
<linearGradient id="linear0" gradientUnits="userSpaceOnUse" x1="254" y1="233.5" x2="254" y2="254.666672" gradientTransform="matrix(0.125012,0,0,0.125012,-0.00000763012,26.877566)">
<stop offset="0" style="stop-color:rgb(0%,0%,0%);stop-opacity:0.27451;"/>
<stop offset="1" style="stop-color:rgb(0%,0%,0%);stop-opacity:0;"/>
</linearGradient>
<radialGradient id="radial0" gradientUnits="userSpaceOnUse" cx="450.908936" cy="189.579361" fx="450.908936" fy="189.579361" r="21.166656" gradientTransform="matrix(0.000000348341,-0.156265,-0.281277,-0.000000203077,106.907381,127.190661)">
<stop offset="0" style="stop-color:rgb(0%,0%,0%);stop-opacity:0.313725;"/>
<stop offset="0.222222" style="stop-color:rgb(0%,0%,0%);stop-opacity:0.27451;"/>
<stop offset="1" style="stop-color:rgb(0%,0%,0%);stop-opacity:0;"/>
</radialGradient>
<radialGradient id="radial1" gradientUnits="userSpaceOnUse" cx="450.908936" cy="189.579361" fx="450.908936" fy="189.579361" r="21.166656" gradientTransform="matrix(-0.000000348341,0.156265,0.281277,0.000000203077,-43.401323,-15.054962)">
<stop offset="0" style="stop-color:rgb(0%,0%,0%);stop-opacity:0.313725;"/>
<stop offset="0.222222" style="stop-color:rgb(0%,0%,0%);stop-opacity:0.27451;"/>
<stop offset="1" style="stop-color:rgb(0%,0%,0%);stop-opacity:0;"/>
</radialGradient>
<radialGradient id="radial2" gradientUnits="userSpaceOnUse" cx="450.908936" cy="189.579361" fx="450.908936" fy="189.579361" r="21.166656" gradientTransform="matrix(-0.000000348341,-0.156265,0.281277,-0.000000203077,-43.401323,127.190661)">
<stop offset="0" style="stop-color:rgb(0%,0%,0%);stop-opacity:0.313725;"/>
<stop offset="0.222222" style="stop-color:rgb(0%,0%,0%);stop-opacity:0.27451;"/>
<stop offset="1" style="stop-color:rgb(0%,0%,0%);stop-opacity:0;"/>
</radialGradient>
<radialGradient id="radial3" gradientUnits="userSpaceOnUse" cx="450.908936" cy="189.579361" fx="450.908936" fy="189.579361" r="21.166656" gradientTransform="matrix(0.000000348341,0.156265,-0.281277,0.000000203077,106.907377,-15.054963)">
<stop offset="0" style="stop-color:rgb(0%,0%,0%);stop-opacity:0.313725;"/>
<stop offset="0.222222" style="stop-color:rgb(0%,0%,0%);stop-opacity:0.27451;"/>
<stop offset="1" style="stop-color:rgb(0%,0%,0%);stop-opacity:0;"/>
</radialGradient>
<linearGradient id="linear1" gradientUnits="userSpaceOnUse" x1="305.954559" y1="-31.87709" x2="305.954559" y2="-135.329163" gradientTransform="matrix(0.150699,0,0,0.434824,-11.708026,67.282696)">
<stop offset="0" style="stop-color:rgb(25.882353%,64.705882%,96.078431%);stop-opacity:1;"/>
<stop offset="1" style="stop-color:rgb(62.352941%,65.882353%,85.490196%);stop-opacity:1;"/>
</linearGradient>
<linearGradient id="linear2" gradientUnits="userSpaceOnUse" x1="960" y1="1615.118164" x2="960" y2="1015.118103" gradientTransform="matrix(0.0330761,0,0,0.0330761,0,2.646117)">
<stop offset="0" style="stop-color:rgb(21.568627%,27.843137%,30.980392%);stop-opacity:1;"/>
<stop offset="1" style="stop-color:rgb(27.058824%,35.294118%,39.215686%);stop-opacity:1;"/>
</linearGradient>
<linearGradient id="linear3" gradientUnits="userSpaceOnUse" x1="1400" y1="695.118103" x2="1400" y2="455.118103" gradientTransform="matrix(0.0330761,0,0,0.0330761,0,0)">
<stop offset="0" style="stop-color:rgb(99.215686%,84.705882%,20.784314%);stop-opacity:1;"/>
<stop offset="1" style="stop-color:rgb(100%,94.509804%,46.27451%);stop-opacity:1;"/>
</linearGradient>
</defs>
<g id="surface1">
<path style=" stroke:none;fill-rule:nonzero;fill:url(#linear0);" d="M 9.261719 56.066406 L 54.246094 56.066406 L 54.246094 58.640625 L 9.261719 58.640625 Z M 9.261719 56.066406 "/>
<path style=" stroke:none;fill-rule:nonzero;fill:url(#radial0);" d="M 54.246094 56.066406 L 59.535156 56.066406 L 59.535156 53.421875 L 54.246094 53.421875 Z M 54.246094 56.066406 "/>
<path style=" stroke:none;fill-rule:nonzero;fill:url(#radial1);" d="M 9.261719 56.066406 L 3.96875 56.066406 L 3.96875 58.714844 L 9.261719 58.714844 Z M 9.261719 56.066406 "/>
<path style=" stroke:none;fill-rule:nonzero;fill:url(#radial2);" d="M 9.261719 56.066406 L 3.96875 56.066406 L 3.96875 53.421875 L 9.261719 53.421875 Z M 9.261719 56.066406 "/>
<path style=" stroke:none;fill-rule:nonzero;fill:url(#radial3);" d="M 54.246094 56.066406 L 59.535156 56.066406 L 59.535156 58.714844 L 54.246094 58.714844 Z M 54.246094 56.066406 "/>
<path style=" stroke:none;fill-rule:nonzero;fill:url(#linear1);" d="M 6.613281 8.4375 L 56.890625 8.4375 C 58.351562 8.4375 59.535156 9.621094 59.535156 11.085938 L 59.535156 53.421875 C 59.535156 54.882812 58.351562 56.066406 56.890625 56.066406 L 6.613281 56.066406 C 5.152344 56.066406 3.96875 54.882812 3.96875 53.421875 L 3.96875 11.085938 C 3.96875 9.621094 5.152344 8.4375 6.613281 8.4375 Z M 6.613281 8.4375 "/>
<path style=" stroke:none;fill-rule:nonzero;fill:url(#linear2);" d="M 3.96875 41.515625 L 3.96875 53.421875 C 3.96875 54.886719 5.148438 56.066406 6.613281 56.066406 L 56.890625 56.066406 C 58.355469 56.066406 59.535156 54.886719 59.535156 53.421875 L 59.535156 41.515625 C 48.535156 47.953125 44.964844 40.78125 40.480469 39.605469 C 35.679688 38.347656 34.761719 44.058594 29.917969 43.476562 C 25.074219 42.894531 18.902344 35.59375 14.4375 36.050781 C 9.976562 36.511719 7.730469 39.144531 3.96875 41.515625 Z M 3.96875 41.515625 "/>
<path style=" stroke:none;fill-rule:nonzero;fill:url(#linear3);" d="M 46.304688 15.054688 C 45.582031 15.054688 44.90625 15.246094 44.320312 15.582031 C 45.511719 16.265625 46.304688 17.546875 46.304688 19.023438 C 46.304688 20.496094 45.511719 21.78125 44.320312 22.464844 C 44.90625 22.800781 45.582031 22.992188 46.304688 22.992188 C 48.503906 22.992188 50.277344 21.222656 50.277344 19.023438 C 50.277344 16.824219 48.503906 15.054688 46.304688 15.054688 Z M 46.304688 15.054688 "/>
<path style=" stroke:none;fill-rule:nonzero;fill:rgb(0%,0%,0%);fill-opacity:0.470588;" d="M 10.585938 12.40625 C 9.117188 12.40625 7.9375 13.585938 7.9375 15.054688 L 7.9375 46.804688 C 7.9375 48.273438 9.117188 49.453125 10.585938 49.453125 L 52.921875 49.453125 C 54.386719 49.453125 55.566406 48.273438 55.566406 46.804688 L 55.566406 15.054688 C 55.566406 13.585938 54.386719 12.40625 52.921875 12.40625 Z M 10.585938 12.738281 L 52.921875 12.738281 C 54.203125 12.738281 55.238281 13.769531 55.238281 15.054688 L 55.238281 46.804688 C 55.238281 48.089844 54.203125 49.121094 52.921875 49.121094 L 10.585938 49.121094 C 9.300781 49.121094 8.269531 48.089844 8.269531 46.804688 L 8.269531 15.054688 C 8.269531 13.769531 9.300781 12.738281 10.585938 12.738281 Z M 10.585938 12.738281 "/>
<path style=" stroke:none;fill-rule:nonzero;fill:rgb(84.313726%,84.313726%,84.313726%);fill-opacity:0.588235;" d="M 10.585938 12.738281 C 9.300781 12.738281 8.269531 13.769531 8.269531 15.054688 L 8.269531 46.804688 C 8.269531 48.089844 9.300781 49.121094 10.585938 49.121094 L 52.921875 49.121094 C 54.203125 49.121094 55.238281 48.089844 55.238281 46.804688 L 55.238281 15.054688 C 55.238281 13.769531 54.203125 12.738281 52.921875 12.738281 Z M 10.585938 13.070312 L 52.921875 13.070312 C 54.019531 13.070312 54.90625 13.953125 54.90625 15.054688 L 54.90625 46.804688 C 54.90625 47.90625 54.019531 48.792969 52.921875 48.792969 L 10.585938 48.792969 C 9.484375 48.792969 8.601562 47.90625 8.601562 46.804688 L 8.601562 15.054688 C 8.601562 13.953125 9.484375 13.070312 10.585938 13.070312 Z M 10.585938 13.070312 "/>
<path style=" stroke:none;fill-rule:nonzero;fill:rgb(0%,0%,0%);fill-opacity:0.196078;" d="M 10.585938 13.070312 L 52.921875 13.070312 C 54.019531 13.070312 54.90625 13.921875 54.90625 14.976562 L 54.90625 46.882812 C 54.90625 47.9375 54.019531 48.792969 52.921875 48.792969 L 10.585938 48.792969 C 9.488281 48.792969 8.601562 47.9375 8.601562 46.882812 L 8.601562 14.976562 C 8.601562 13.921875 9.488281 13.070312 10.585938 13.070312 Z M 10.585938 13.070312 "/>
<path style=" stroke:none;fill-rule:nonzero;fill:rgb(89.019608%,89.019608%,89.019608%);fill-opacity:0.117647;" d="M 10.585938 13.398438 C 9.667969 13.398438 8.929688 14.136719 8.929688 15.054688 L 8.929688 26.136719 C 19.507812 21.65625 32.472656 19.023438 46.515625 19.023438 C 49.246094 19.023438 51.9375 19.121094 54.574219 19.316406 L 54.574219 15.054688 C 54.574219 14.136719 53.839844 13.398438 52.921875 13.398438 Z M 10.585938 13.398438 "/>
<path style=" stroke:none;fill-rule:nonzero;fill:rgb(100%,100%,100%);fill-opacity:0.392157;" d="M 6.613281 8.4375 C 5.148438 8.4375 3.96875 9.617188 3.96875 11.085938 L 3.96875 12.070312 C 3.96875 10.605469 5.148438 9.425781 6.613281 9.425781 L 56.890625 9.425781 C 58.355469 9.425781 59.535156 10.605469 59.535156 12.070312 L 59.535156 11.085938 C 59.535156 9.617188 58.355469 8.4375 56.890625 8.4375 Z M 6.613281 8.4375 "/>
<path style=" stroke:none;fill-rule:nonzero;fill:rgb(0%,0%,0%);fill-opacity:0.235294;" d="M 6.613281 56.070312 C 5.148438 56.070312 3.96875 54.890625 3.96875 53.421875 L 3.96875 52.4375 C 3.96875 53.902344 5.148438 55.082031 6.613281 55.082031 L 56.890625 55.082031 C 58.355469 55.082031 59.535156 53.902344 59.535156 52.4375 L 59.535156 53.421875 C 59.535156 54.890625 58.355469 56.070312 56.890625 56.070312 Z M 6.613281 56.070312 "/>
<path style="fill:none;stroke-width:3;stroke-linecap:round;stroke-linejoin:miter;stroke:rgb(12.941177%,12.941177%,12.941177%);stroke-opacity:1;stroke-miterlimit:4;" d="M 52.901198 -147.506445 L 455.081542 -147.506445 C 466.767926 -147.506445 476.235772 -138.038599 476.235772 -126.320968 L 476.235772 212.334192 C 476.235772 224.020576 466.767926 233.488421 455.081542 233.488421 L 52.901198 233.488421 C 41.214814 233.488421 31.746968 224.020576 31.746968 212.334192 L 31.746968 -126.320968 C 31.746968 -138.038599 41.214814 -147.506445 52.901198 -147.506445 Z M 52.901198 -147.506445 " transform="matrix(0.125012,0,0,0.125012,0,26.877566)"/>
</g>
</svg>

<svg xmlns="http://www.w3.org/2000/svg" width="64pt" height="64pt" viewBox="0 0 64 64"><defs><linearGradient id="a" gradientUnits="userSpaceOnUse" x1="254" y1="233.5" x2="254" y2="254.667" gradientTransform="translate(0 26.878) scale(.12501)"><stop offset="0" stop-opacity=".275"/><stop offset="1" stop-opacity="0"/></linearGradient><radialGradient id="b" gradientUnits="userSpaceOnUse" cx="450.909" cy="189.579" fx="450.909" fy="189.579" r="21.167" gradientTransform="matrix(0 -.15626 -.28128 0 106.907 127.19)"><stop offset="0" stop-opacity=".314"/><stop offset=".222" stop-opacity=".275"/><stop offset="1" stop-opacity="0"/></radialGradient><radialGradient id="c" gradientUnits="userSpaceOnUse" cx="450.909" cy="189.579" fx="450.909" fy="189.579" r="21.167" gradientTransform="matrix(0 .15626 .28128 0 -43.401 -15.055)"><stop offset="0" stop-opacity=".314"/><stop offset=".222" stop-opacity=".275"/><stop offset="1" stop-opacity="0"/></radialGradient><radialGradient id="d" gradientUnits="userSpaceOnUse" cx="450.909" cy="189.579" fx="450.909" fy="189.579" r="21.167" gradientTransform="matrix(0 -.15626 .28128 0 -43.401 127.19)"><stop offset="0" stop-opacity=".314"/><stop offset=".222" stop-opacity=".275"/><stop offset="1" stop-opacity="0"/></radialGradient><radialGradient id="e" gradientUnits="userSpaceOnUse" cx="450.909" cy="189.579" fx="450.909" fy="189.579" r="21.167" gradientTransform="matrix(0 .15626 -.28128 0 106.907 -15.055)"><stop offset="0" stop-opacity=".314"/><stop offset=".222" stop-opacity=".275"/><stop offset="1" stop-opacity="0"/></radialGradient><linearGradient id="f" gradientUnits="userSpaceOnUse" x1="305.955" y1="-31.877" x2="305.955" y2="-135.329" gradientTransform="matrix(.1507 0 0 .43482 -11.708 67.283)"><stop offset="0" stop-color="#42a5f5"/><stop offset="1" stop-color="#9fa8da"/></linearGradient><linearGradient id="g" gradientUnits="userSpaceOnUse" x1="960" y1="1615.118" x2="960" y2="1015.118" gradientTransform="matrix(.03308 0 0 .03308 0 2.646)"><stop offset="0" stop-color="#37474f"/><stop offset="1" stop-color="#455a64"/></linearGradient><linearGradient id="h" gradientUnits="userSpaceOnUse" x1="1400" y1="695.118" x2="1400" y2="455.118" gradientTransform="scale(.03308)"><stop offset="0" stop-color="#fdd835"/><stop offset="1" stop-color="#fff176"/></linearGradient></defs><path d="M9.262 56.066h44.984v2.575H9.262zm0 0" fill="url(#a)"/><path d="M54.246 56.066h5.29v-2.644h-5.29zm0 0" fill="url(#b)"/><path d="M9.262 56.066H3.969v2.649h5.293zm0 0" fill="url(#c)"/><path d="M9.262 56.066H3.969v-2.644h5.293zm0 0" fill="url(#d)"/><path d="M54.246 56.066h5.29v2.649h-5.29zm0 0" fill="url(#e)"/><path d="M6.613 8.438h50.278a2.645 2.645 0 0 1 2.644 2.648v42.336a2.644 2.644 0 0 1-2.644 2.644H6.613a2.644 2.644 0 0 1-2.644-2.644V11.086a2.645 2.645 0 0 1 2.644-2.649zm0 0" fill="url(#f)"/><path d="M3.969 41.516v11.906a2.639 2.639 0 0 0 2.644 2.644h50.278a2.639 2.639 0 0 0 2.644-2.644V41.516c-11 6.437-14.57-.735-19.055-1.91-4.8-1.258-5.718 4.453-10.562 3.87-4.844-.581-11.016-7.882-15.48-7.425-4.461.46-6.708 3.094-10.47 5.465zm0 0" fill="url(#g)"/><path d="M46.305 15.055c-.723 0-1.399.191-1.985.527a3.95 3.95 0 0 1 1.985 3.441 3.955 3.955 0 0 1-1.985 3.442 3.972 3.972 0 0 0 1.985.527c2.199 0 3.972-1.77 3.972-3.969s-1.773-3.968-3.972-3.968zm0 0" fill="url(#h)"/><path d="M10.586 12.406a2.64 2.64 0 0 0-2.649 2.649v31.75a2.64 2.64 0 0 0 2.649 2.648h42.336a2.64 2.64 0 0 0 2.644-2.648v-31.75a2.64 2.64 0 0 0-2.644-2.649zm0 .332h42.336a2.311 2.311 0 0 1 2.316 2.317v31.75a2.311 2.311 0 0 1-2.316 2.316H10.586a2.309 2.309 0 0 1-2.316-2.316v-31.75a2.309 2.309 0 0 1 2.316-2.317zm0 0" fill-opacity=".471"/><path d="M10.586 12.738a2.309 2.309 0 0 0-2.316 2.317v31.75a2.309 2.309 0 0 0 2.316 2.316h42.336a2.311 2.311 0 0 0 2.316-2.316v-31.75a2.311 2.311 0 0 0-2.316-2.317zm0 .332h42.336a1.98 1.98 0 0 1 1.984 1.985v31.75a1.983 1.983 0 0 1-1.984 1.988H10.586a1.98 1.98 0 0 1-1.984-1.988v-31.75c0-1.102.882-1.985 1.984-1.985zm0 0" fill="#d7d7d7" fill-opacity=".588"/><path d="M10.586 13.07h42.336c1.098 0 1.984.852 1.984 1.907v31.906c0 1.054-.886 1.91-1.984 1.91H10.586c-1.098 0-1.984-.855-1.984-1.91V14.977c0-1.055.886-1.907 1.984-1.907zm0 0" fill-opacity=".196"/><path d="M10.586 13.398c-.918 0-1.656.739-1.656 1.657v11.082c10.578-4.48 23.543-7.114 37.586-7.114 2.73 0 5.422.098 8.058.293v-4.261c0-.918-.734-1.657-1.652-1.657zm0 0" fill="#e3e3e3" fill-opacity=".118"/><path d="M6.613 8.438a2.64 2.64 0 0 0-2.644 2.648v.984a2.639 2.639 0 0 1 2.644-2.644h50.278a2.639 2.639 0 0 1 2.644 2.644v-.984a2.64 2.64 0 0 0-2.644-2.649zm0 0" fill="#fff" fill-opacity=".392"/><path d="M6.613 56.07a2.64 2.64 0 0 1-2.644-2.648v-.984a2.639 2.639 0 0 0 2.644 2.644h50.278a2.639 2.639 0 0 0 2.644-2.645v.985a2.64 2.64 0 0 1-2.644 2.648zm0 0" fill-opacity=".235"/><path d="M6.613 8.437h50.278a2.645 2.645 0 0 1 2.644 2.649v42.336a2.644 2.644 0 0 1-2.644 2.644H6.613a2.644 2.644 0 0 1-2.644-2.644V11.086a2.645 2.645 0 0 1 2.644-2.649zm0 0" fill="none" stroke-width=".37503000000000003" stroke-linecap="round" stroke="#212121"/></svg>
